assets/Cold face/Flat/cold_face_flat.svg

<svg width="32" height="32" viewBox="0 0 32 32" fill="none" xmlns="http://www.w3.org/2000/svg">
<path d="M29.9978 15.9989C29.9978 19.8639 28.8321 23.363 26.5 25.8962V28.5L26 30H24.5L23.2741 28.3655C21.2888 29.4074 18.8638 29.9978 15.9989 29.9978C14.915 29.9978 13.8941 29.9133 12.9362 29.7518L12 31L10.5 31.5L9 30V28.5061C8.61906 28.3181 8.25368 28.1138 7.90385 27.8942L7.5 28.5L6 29L5 27.5V25.3192C2.99982 22.844 2 19.5783 2 15.9989C2 8.26751 6.66443 2 15.9989 2C25.3333 2 29.9978 8.26751 29.9978 15.9989Z" fill="#5092FF"/>
<path d="M10.5 18C12.9853 18 15 15.9853 15 13.5C15 11.0147 12.9853 9 10.5 9C8.01472 9 6 11.0147 6 13.5C6 15.9853 8.01472 18 10.5 18Z" fill="white"/>
<path d="M21.5 18C23.9853 18 26 15.9853 26 13.5C26 11.0147 23.9853 9 21.5 9C19.0147 9 17 11.0147 17 13.5C17 15.9853 19.0147 18 21.5 18Z" fill="white"/>
<path d="M10.6091 5.01204C10.8786 5.07231 11.0482 5.33963 10.9879 5.60911C10.6873 6.9534 9.94628 7.81672 9.07421 8.33284C8.21756 8.83982 7.25735 8.99999 6.5 8.99999C6.22386 8.99999 6 8.77613 6 8.49999C6 8.22384 6.22386 7.99999 6.5 7.99999C7.13305 7.99999 7.9037 7.86357 8.56489 7.47226C9.21065 7.09009 9.77442 6.45342 10.0121 5.39086C10.0723 5.12138 10.3396 4.95177 10.6091 5.01204Z" fill="#402A32"/>
<path d="M21.3909 5.01204C21.1214 5.07231 20.9518 5.33963 21.0121 5.60911C21.3127 6.9534 22.0537 7.81672 22.9258 8.33284C23.7824 8.83982 24.7427 8.99999 25.5 8.99999C25.7761 8.99999 26 8.77613 26 8.49999C26 8.22384 25.7761 7.99999 25.5 7.99999C24.8669 7.99999 24.0963 7.86357 23.4351 7.47226C22.7894 7.09009 22.2256 6.45342 21.9879 5.39086C21.9277 5.12138 21.6604 4.95177 21.3909 5.01204Z" fill="#402A32"/>
<path d="M14 14C14 15.1046 13.1046 16 12 16C10.8954 16 10 15.1046 10 14C10 12.8954 10.8954 12 12 12C13.1046 12 14 12.8954 14 14Z" fill="#402A32"/>
<path d="M22 14C22 15.1046 21.1046 16 20 16C18.8954 16 18 15.1046 18 14C18 12.8954 18.8954 12 20 12C21.1046 12 22 12.8954 22 14Z" fill="#402A32"/>
<path d="M9 22C9 21.3998 9.17627 20.8408 9.47986 20.3718H22.5201C22.8237 20.8408 23 21.3998 23 22C23 23.1739 22.3258 24.1903 21.3435 24.6831H10.6565C9.67419 24.1903 9 23.1739 9 22Z" fill="#433B6B"/>
<path d="M12 19H20C21.0665 19 22.003 19.5565 22.535 20.395L22.3419 20.9743C22.1377 21.5869 21.5645 22 20.9188 22H11.0811C10.4355 22 9.86225 21.5869 9.65808 20.9743L9.46497 20.395C9.99695 19.5565 10.9335 19 12 19Z" fill="white"/>
<path d="M20 25H12C11.5016 25 11.0316 24.8785 10.6181 24.6635C10.2419 24.3707 9.99982 23.9137 9.99969 23.4002C9.99964 23.1792 10.1788 23 10.3998 23H21.5997C21.8206 23 21.9996 23.179 21.9997 23.3999C21.9998 23.9138 21.7575 24.3712 21.3809 24.664C20.9676 24.8787 20.4979 25 20 25Z" fill="white"/>
</svg>

<svg xmlns="http://www.w3.org/2000/svg" width="32" height="32" fill="none"><path fill="#5092FF" d="M29.998 15.999c0 3.865-1.166 7.364-3.498 9.897V28.5L26 30h-1.5l-1.226-1.634c-1.985 1.041-4.41 1.632-7.275 1.632-1.084 0-2.105-.085-3.063-.246L12 31l-1.5.5L9 30v-1.494c-.38-.188-.746-.392-1.096-.612L7.5 28.5 6 29l-1-1.5v-2.18c-2-2.476-3-5.742-3-9.321C2 8.268 6.664 2 15.999 2c9.334 0 13.999 6.268 13.999 13.999Z"/><path fill="#fff" d="M10.5 18a4.5 4.5 0 1 0 0-9 4.5 4.5 0 0 0 0 9ZM21.5 18a4.5 4.5 0 1 0 0-9 4.5 4.5 0 0 0 0 9Z"/><path fill="#402A32" d="M10.61 5.012a.5.5 0 0 1 .378.597c-.3 1.344-1.042 2.208-1.914 2.724C8.218 8.84 7.257 9 6.5 9a.5.5 0 0 1 0-1c.633 0 1.404-.136 2.065-.528.646-.382 1.21-1.019 1.447-2.081a.5.5 0 0 1 .597-.379ZM21.39 5.012a.5.5 0 0 0-.378.597c.3 1.344 1.042 2.208 1.914 2.724.856.507 1.817.667 2.574.667a.5.5 0 0 0 0-1c-.633 0-1.404-.136-2.065-.528-.646-.382-1.21-1.019-1.447-2.081a.5.5 0 0 0-.597-.379ZM14 14a2 2 0 1 1-4 0 2 2 0 0 1 4 0ZM22 14a2 2 0 1 1-4 0 2 2 0 0 1 4 0Z"/><path fill="#433B6B" d="M9 22c0-.6.176-1.16.48-1.628h13.04a3 3 0 0 1-1.177 4.311H10.656A3 3 0 0 1 9 22Z"/><path fill="#fff" d="M12 19h8c1.067 0 2.003.556 2.535 1.395l-.193.58A1.5 1.5 0 0 1 20.919 22H11.08a1.5 1.5 0 0 1-1.423-1.026l-.193-.579A2.998 2.998 0 0 1 12 19ZM20 25h-8c-.498 0-.968-.122-1.382-.337A1.598 1.598 0 0 1 10 23.4a.4.4 0 0 1 .4-.4h11.2a.4.4 0 0 1 .4.4c0 .514-.242.971-.62 1.264A2.987 2.987 0 0 1 20 25Z"/></svg>
